src/lib/images/featured/coinmarketcap.svg

<svg fill="none" viewBox="0 0 601 104" xmlns="http://www.w3.org/2000/svg"><path d="m88.4 61.7c-1.8 1.1-3.9 1.3-5.5.4-2-1.2-3.2-3.9-3.2-7.6v-11.3c0-5.4-2.1-9.3-5.7-10.3-6.1-1.8-10.7 5.7-12.4 8.5l-10.8 17.3v-21.3c-.1-4.9-1.7-7.8-4.7-8.7-2-.6-5-.3-7.9 4.1l-24.1 38.6c-3.2-6.1-4.9-12.9-4.9-19.8 0-23.3 18.7-42.20001 41.6-42.20001s41.6 18.90001 41.6 42.20001v.1.1c.2 4.5-1.2 8.1-4 9.9zm13.2-10.1v-.1-.1c-.1-28.3-22.9-51.4-50.8-51.4-28 0-50.8 23.1-50.8 51.6 0 28.4 22.8 51.6 50.8 51.6 12.9 0 25.1-4.9 34.5-13.8 1.9-1.8 2-4.7.2-6.6-1.7-1.9-4.6-2-6.5-.3 0 0 0 0-.1.1-7.6 7.2-17.8 11.3-28.3 11.3-12.3 0-23.3-5.4-30.9-14l21.7-34.8v16.1c0 7.7 3 10.2 5.5 10.9s6.3.2 10.4-6.3l11.9-19.3c.4-.6.7-1.2 1.1-1.6v9.8c0 7.2 2.9 13 7.9 15.8 4.5 2.6 10.2 2.3 14.9-.6 5.8-3.8 8.9-10.4 8.5-18.3zm70.8-17.6c1.2.7 2.3 2.4 2.3 3.9 0 2.4-2 4.4-4.3 4.4-.6 0-1.1-.2-1.6-.3-2.7-2-6.1-3.3-9.7-3.3-8.5 0-14.3 6.9-14.3 15.5s5.9 15.4 14.3 15.4c4.2 0 8-1.7 10.8-4.4.7-.5 1.6-.8 2.5-.8 2.3 0 4.1 1.8 4.1 4.1 0 1.5-.9 2.8-2 3.5-4.1 3.5-9.6 5.8-15.3 5.8-13 0-23.6-10.7-23.6-23.9s10.6-23.9 23.6-23.9c4.8-.1 9.4 1.4 13.2 4zm23.8 10c8.9 0 16.3 7.5 16.3 16.8 0 9.2-7.5 17.1-16.3 17.1-9.3 0-17-7.8-17-17.1s7.7-16.8 17-16.8zm-.1 25.6c3.9 0 7.2-3.7 7.2-8.7s-3.3-8.2-7.2-8.2c-4.2 0-7.7 3.1-7.7 8.2 0 4.9 3.5 8.7 7.7 8.7zm22 3.1v-23.6c0-2.6 2-4.7 4.6-4.7 2.5 0 4.6 2.1 4.6 4.7v23.6c0 2.6-2.1 4.7-4.6 4.7s-4.6-2.2-4.6-4.7zm-.7-37.2c0-3.1 2.4-5.5 5.3-5.5 3 0 5.4 2.5 5.4 5.5s-2.4 5.4-5.4 5.4c-3-.1-5.3-2.5-5.3-5.4zm27.5 24.4v12.8c0 2.6-2.1 4.7-4.6 4.7s-4.6-2.1-4.6-4.7v-24.7c0-2 1.6-3.6 3.6-3.6s3.5 1.7 3.5 3.6c3.7-3.5 7-4 10.1-4 9.2 0 13.3 6.9 13.3 14.8v13.9c0 2.6-2.1 4.7-4.6 4.7s-4.6-2.1-4.6-4.7v-12.8c0-4-.5-7.4-6.3-7.4-4.1 0-5.8 3.4-5.8 7.4zm51.1 4.9c-1.1 0-1.8-.5-2.4-1.2l-10.7-11.6v20.7c0 2.6-2.1 4.7-4.6 4.7s-4.6-2.1-4.6-4.7v-41c.3-.7 1-1.2 1.7-1.2.8 0 1.5.7 2 1.2l17.1 19.2c.5.6 1.1.9 1.5.9.3 0 1-.3 1.5-.9l17.1-19.2c.5-.5 1.1-1.2 2-1.2.8 0 1.5.5 1.7 1.2v41c0 2.6-2 4.7-4.6 4.7-2.5 0-4.6-2.1-4.6-4.7v-20.7l-10.7 11.6c-.8.7-1.5 1.2-2.4 1.2zm44.2 4.8c4.1 0 7.6-3.7 7.6-8.7s-3.6-8.3-7.6-8.3-7.3 3.4-7.3 8.3c0 4.8 3.2 8.7 7.3 8.7zm9.8 4.2-.2-1.1c-1.8 3.5-7.5 5.1-11.1 5.1-8.6 0-15-7.8-15-17.1 0-9.2 6.5-16.8 15.5-16.8 1.5 0 6.7.4 10.7 5.1l.2-1.1c0-2 1.5-3.6 3.5-3.6s3.6 1.7 3.6 3.6v25.8c0 2-1.6 3.6-3.6 3.6-2.1.1-3.6-1.6-3.6-3.5zm32.5-21.3h-1c-5.8.3-6.9 3.6-6.9 7.4v12.8c0 2.6-2.1 4.7-4.6 4.7s-4.6-2.1-4.6-4.7v-24.7c0-2 1.6-3.6 3.6-3.6s3.5 1.7 3.5 3.6c3.4-3.2 6.2-3.9 9-4h.9c2.2 0 4.2 1.9 4.2 4.3.1 2.2-1.9 4.2-4.1 4.2zm35.5 18c.4.7.7 1.4.7 2.2 0 2.4-2.2 4.6-4.6 4.6-1.6 0-3-1.2-4.1-2.6l-10.6-12.3v10.2c0 2.6-2.1 4.7-4.6 4.7s-4.6-2.1-4.6-4.7v-37.5c0-2.6 2-4.7 4.6-4.7s4.6 2.1 4.6 4.7v23.4l10.6-11.7c1.1-1.2 2.4-2.5 4-2.5 2.3 0 4.4 2.1 4.4 4.5 0 .7-.2 1.5-.6 2.1l-8.4 9.2zm18-17.9c-2.5 0-6.6 1.3-6.6 5.2h13.3c-.1-3.9-4.3-5.2-6.7-5.2zm12 11.1h-18.6c0 5.5 5.3 6.4 7.6 6.4 1.7 0 4.1-.3 6-1.2.6-.4 1.5-.7 2.4-.7 2 0 3.7 1.7 3.7 3.8 0 1.4-.9 2.6-2 3.3-2.8 2.1-6.5 2.6-10 2.6-9.3 0-17-5-17-16.7 0-9.2 4.7-17.2 15.7-17.2 8.9 0 15.6 5.8 15.8 16.1 0 1.9-1.6 3.6-3.6 3.6zm25.6 14.1h-2.5c-7 0-11.1-3.1-11.1-14v-11.3h-2.4c-2.2 0-4.1-2-4.1-4.2 0-2.4 2-4.3 4.1-4.3h2.4v-8.7c0-2.6 2-4.7 4.6-4.7 2.5 0 4.6 2.1 4.6 4.7v8.7h3.8c2.2 0 4.1 1.9 4.1 4.3 0 2.2-2 4.2-4.1 4.2h-3.8v9.5c0 6.3.3 7.6 3.1 7.6h1.3c2.2 0 4.1 1.8 4.1 4.1 0 2.2-1.9 4.1-4.1 4.1zm44.5-43.8c1.2.7 2.3 2.4 2.3 3.9 0 2.4-2 4.4-4.3 4.4-.6 0-1.1-.2-1.6-.3-2.7-2-6.1-3.3-9.7-3.3-8.5 0-14.3 6.9-14.3 15.5s5.9 15.4 14.3 15.4c4.2 0 8-1.7 10.8-4.4.7-.5 1.6-.8 2.5-.8 2.3 0 4.1 1.8 4.1 4.1 0 1.5-.9 2.8-2 3.5-4.1 3.5-9.6 5.8-15.3 5.8-13 0-23.6-10.7-23.6-23.9s10.6-23.9 23.6-23.9c4.8-.1 9.5 1.4 13.2 4zm23.3 35.6c4.1 0 7.6-3.7 7.6-8.7s-3.6-8.3-7.6-8.3c-4.1 0-7.3 3.4-7.3 8.3 0 4.8 3.3 8.7 7.3 8.7zm9.8 4.2-.2-1.1c-1.8 3.5-7.5 5.1-11.1 5.1-8.6 0-15-7.8-15-17.1 0-9.2 6.5-16.8 15.5-16.8 1.5 0 6.7.4 10.7 5.1l.2-1.1c0-2 1.5-3.6 3.5-3.6s3.6 1.7 3.6 3.6v25.8c0 2-1.6 3.6-3.6 3.6-2.1.1-3.6-1.6-3.6-3.5zm32.3-4.2c4.1 0 7.3-3.9 7.3-8.7 0-5-3.3-8.3-7.3-8.3-4.1 0-7.6 3.3-7.6 8.3s3.5 8.7 7.6 8.7zm-7.6 5.5v11.7c0 2.6-2.1 4.7-4.6 4.7s-4.6-2.1-4.6-4.7v-38.8c0-2 1.6-3.6 3.6-3.6s3.5 1.7 3.5 4c3.4-3.5 7.6-4.4 10.8-4.4 8.9 0 15.5 7.5 15.5 16.8 0 9.2-6.3 17.1-15 17.1-2.7-.1-6.7-.9-9.2-2.8z" fill="#fff"/></svg>

<svg viewBox="0 0 601 104" fill="none" xmlns="http://www.w3.org/2000/svg">
<path d="M88.4 61.7C86.6 62.8 84.5 63 82.9 62.1C80.9 60.9 79.7 58.2 79.7 54.5V43.2C79.7 37.8 77.6 33.9 74 32.9C67.9 31.1 63.3 38.6 61.6 41.4L50.8 58.7V37.4C50.7 32.5 49.1 29.6 46.1 28.7C44.1 28.1 41.1 28.4 38.2 32.8L14.1 71.4C10.9 65.3 9.2 58.5 9.2 51.6C9.2 28.3 27.9 9.39999 50.8 9.39999C73.7 9.39999 92.4 28.3 92.4 51.6V51.7V51.8C92.6 56.3 91.2 59.9 88.4 61.7ZM101.6 51.6V51.5V51.4C101.5 23.1 78.7 0 50.8 0C22.8 0 0 23.1 0 51.6C0 80 22.8 103.2 50.8 103.2C63.7 103.2 75.9 98.3 85.3 89.4C87.2 87.6 87.3 84.7 85.5 82.8C83.8 80.9 80.9 80.8 79 82.5C79 82.5 79 82.5 78.9 82.6C71.3 89.8 61.1 93.9 50.6 93.9C38.3 93.9 27.3 88.5 19.7 79.9L41.4 45.1V61.2C41.4 68.9 44.4 71.4 46.9 72.1C49.4 72.8 53.2 72.3 57.3 65.8L69.2 46.5C69.6 45.9 69.9 45.3 70.3 44.9V54.7C70.3 61.9 73.2 67.7 78.2 70.5C82.7 73.1 88.4 72.8 93.1 69.9C98.9 66.1 102 59.5 101.6 51.6ZM172.4 34C173.6 34.7 174.7 36.4 174.7 37.9C174.7 40.3 172.7 42.3 170.4 42.3C169.8 42.3 169.3 42.1 168.8 42C166.1 40 162.7 38.7 159.1 38.7C150.6 38.7 144.8 45.6 144.8 54.2C144.8 62.8 150.7 69.6 159.1 69.6C163.3 69.6 167.1 67.9 169.9 65.2C170.6 64.7 171.5 64.4 172.4 64.4C174.7 64.4 176.5 66.2 176.5 68.5C176.5 70 175.6 71.3 174.5 72C170.4 75.5 164.9 77.8 159.2 77.8C146.2 77.8 135.6 67.1 135.6 53.9C135.6 40.7 146.2 30 159.2 30C164 29.9 168.6 31.4 172.4 34ZM196.2 44C205.1 44 212.5 51.5 212.5 60.8C212.5 70 205 77.9 196.2 77.9C186.9 77.9 179.2 70.1 179.2 60.8C179.2 51.5 186.9 44 196.2 44ZM196.1 69.6C200 69.6 203.3 65.9 203.3 60.9C203.3 55.9 200 52.7 196.1 52.7C191.9 52.7 188.4 55.8 188.4 60.9C188.4 65.8 191.9 69.6 196.1 69.6ZM218.1 72.7V49.1C218.1 46.5 220.1 44.4 222.7 44.4C225.2 44.4 227.3 46.5 227.3 49.1V72.7C227.3 75.3 225.2 77.4 222.7 77.4C220.2 77.4 218.1 75.2 218.1 72.7ZM217.4 35.5C217.4 32.4 219.8 30 222.7 30C225.7 30 228.1 32.5 228.1 35.5C228.1 38.5 225.7 40.9 222.7 40.9C219.7 40.8 217.4 38.4 217.4 35.5ZM244.9 59.9V72.7C244.9 75.3 242.8 77.4 240.3 77.4C237.8 77.4 235.7 75.3 235.7 72.7V48C235.7 46 237.3 44.4 239.3 44.4C241.3 44.4 242.8 46.1 242.8 48C246.5 44.5 249.8 44 252.9 44C262.1 44 266.2 50.9 266.2 58.8V72.7C266.2 75.3 264.1 77.4 261.6 77.4C259.1 77.4 257 75.3 257 72.7V59.9C257 55.9 256.5 52.5 250.7 52.5C246.6 52.5 244.9 55.9 244.9 59.9ZM296 64.8C294.9 64.8 294.2 64.3 293.6 63.6L282.9 52V72.7C282.9 75.3 280.8 77.4 278.3 77.4C275.8 77.4 273.7 75.3 273.7 72.7V31.7C274 31 274.7 30.5 275.4 30.5C276.2 30.5 276.9 31.2 277.4 31.7L294.5 50.9C295 51.5 295.6 51.8 296 51.8C296.3 51.8 297 51.5 297.5 50.9L314.6 31.7C315.1 31.2 315.7 30.5 316.6 30.5C317.4 30.5 318.1 31 318.3 31.7V72.7C318.3 75.3 316.3 77.4 313.7 77.4C311.2 77.4 309.1 75.3 309.1 72.7V52L298.4 63.6C297.6 64.3 296.9 64.8 296 64.8ZM340.2 69.6C344.3 69.6 347.8 65.9 347.8 60.9C347.8 55.9 344.2 52.6 340.2 52.6C336.2 52.6 332.9 56 332.9 60.9C332.9 65.7 336.1 69.6 340.2 69.6ZM350 73.8L349.8 72.7C348 76.2 342.3 77.8 338.7 77.8C330.1 77.8 323.7 70 323.7 60.7C323.7 51.5 330.2 43.9 339.2 43.9C340.7 43.9 345.9 44.3 349.9 49L350.1 47.9C350.1 45.9 351.6 44.3 353.6 44.3C355.6 44.3 357.2 46 357.2 47.9V73.7C357.2 75.7 355.6 77.3 353.6 77.3C351.5 77.4 350 75.7 350 73.8ZM382.5 52.5H381.5C375.7 52.8 374.6 56.1 374.6 59.9V72.7C374.6 75.3 372.5 77.4 370 77.4C367.5 77.4 365.4 75.3 365.4 72.7V48C365.4 46 367 44.4 369 44.4C371 44.4 372.5 46.1 372.5 48C375.9 44.8 378.7 44.1 381.5 44H382.4C384.6 44 386.6 45.9 386.6 48.3C386.7 50.5 384.7 52.5 382.5 52.5ZM418 70.5C418.4 71.2 418.7 71.9 418.7 72.7C418.7 75.1 416.5 77.3 414.1 77.3C412.5 77.3 411.1 76.1 410 74.7L399.4 62.4V72.6C399.4 75.2 397.3 77.3 394.8 77.3C392.3 77.3 390.2 75.2 390.2 72.6V35.1C390.2 32.5 392.2 30.4 394.8 30.4C397.4 30.4 399.4 32.5 399.4 35.1V58.5L410 46.8C411.1 45.6 412.4 44.3 414 44.3C416.3 44.3 418.4 46.4 418.4 48.8C418.4 49.5 418.2 50.3 417.8 50.9L409.4 60.1L418 70.5ZM436 52.6C433.5 52.6 429.4 53.9 429.4 57.8H442.7C442.6 53.9 438.4 52.6 436 52.6ZM448 63.7H429.4C429.4 69.2 434.7 70.1 437 70.1C438.7 70.1 441.1 69.8 443 68.9C443.6 68.5 444.5 68.2 445.4 68.2C447.4 68.2 449.1 69.9 449.1 72C449.1 73.4 448.2 74.6 447.1 75.3C444.3 77.4 440.6 77.9 437.1 77.9C427.8 77.9 420.1 72.9 420.1 61.2C420.1 52 424.8 44 435.8 44C444.7 44 451.4 49.8 451.6 60.1C451.6 62 450 63.7 448 63.7ZM473.6 77.8H471.1C464.1 77.8 460 74.7 460 63.8V52.5H457.6C455.4 52.5 453.5 50.5 453.5 48.3C453.5 45.9 455.5 44 457.6 44H460V35.3C460 32.7 462 30.6 464.6 30.6C467.1 30.6 469.2 32.7 469.2 35.3V44H473C475.2 44 477.1 45.9 477.1 48.3C477.1 50.5 475.1 52.5 473 52.5H469.2V62C469.2 68.3 469.5 69.6 472.3 69.6H473.6C475.8 69.6 477.7 71.4 477.7 73.7C477.7 75.9 475.8 77.8 473.6 77.8ZM518.1 34C519.3 34.7 520.4 36.4 520.4 37.9C520.4 40.3 518.4 42.3 516.1 42.3C515.5 42.3 515 42.1 514.5 42C511.8 40 508.4 38.7 504.8 38.7C496.3 38.7 490.5 45.6 490.5 54.2C490.5 62.8 496.4 69.6 504.8 69.6C509 69.6 512.8 67.9 515.6 65.2C516.3 64.7 517.2 64.4 518.1 64.4C520.4 64.4 522.2 66.2 522.2 68.5C522.2 70 521.3 71.3 520.2 72C516.1 75.5 510.6 77.8 504.9 77.8C491.9 77.8 481.3 67.1 481.3 53.9C481.3 40.7 491.9 30 504.9 30C509.7 29.9 514.4 31.4 518.1 34ZM541.4 69.6C545.5 69.6 549 65.9 549 60.9C549 55.9 545.4 52.6 541.4 52.6C537.3 52.6 534.1 56 534.1 60.9C534.1 65.7 537.4 69.6 541.4 69.6ZM551.2 73.8L551 72.7C549.2 76.2 543.5 77.8 539.9 77.8C531.3 77.8 524.9 70 524.9 60.7C524.9 51.5 531.4 43.9 540.4 43.9C541.9 43.9 547.1 44.3 551.1 49L551.3 47.9C551.3 45.9 552.8 44.3 554.8 44.3C556.8 44.3 558.4 46 558.4 47.9V73.7C558.4 75.7 556.8 77.3 554.8 77.3C552.7 77.4 551.2 75.7 551.2 73.8ZM583.5 69.6C587.6 69.6 590.8 65.7 590.8 60.9C590.8 55.9 587.5 52.6 583.5 52.6C579.4 52.6 575.9 55.9 575.9 60.9C575.9 65.9 579.4 69.6 583.5 69.6ZM575.9 75.1V86.8C575.9 89.4 573.8 91.5 571.3 91.5C568.8 91.5 566.7 89.4 566.7 86.8V48C566.7 46 568.3 44.4 570.3 44.4C572.3 44.4 573.8 46.1 573.8 48.4C577.2 44.9 581.4 44 584.6 44C593.5 44 600.1 51.5 600.1 60.8C600.1 70 593.8 77.9 585.1 77.9C582.4 77.8 578.4 77 575.9 75.1Z" fill="white"/>
</svg>
